X:1
T:McElligott's Hornpipe
S:Belfast piper R.L. O'Mealy (1873-1947), c. 1945
N:From a handwritten lesson mss.
M:C|
L:1/8
R:Hornpipe
B:Séan Reid Society Journal No. 1 (March, 1999)
Z:AK/Fiddler's Companion
K:D
FG|{c}(A>F)A>d {c}(B>G)B>d|{c}(AF)Ad f2 e(f|[a}g>)(fg>)e cA(3Bcd|(3efe (3dcB A2 FG|
{c}(A>F)A>d {c}(B>G)B>d|{c}(AF)Ad f2 e(f|{a}g>fg>)e cABc|d2f2d2:|
|:ef|{a}g>fg>)e cABc|d>cd>e {a}f2 ef|{a}(g>fg>)e cA(3Bcd|(3efe (3dcB {c}A2 FG|
{c}(A>F)A>d {c}(B>G)B>d|{c}(AF)Ad {a}f2 ef|{a}(g>fg>)e cABc|d2f2d2||

